Themes/OneUI/assets/svg/sec_ic_settings_lockscreen.svg

<?xml version="1.0" encoding="UTF-8" standalone="no"?>
<svg
   width="28.000021"
   height="28.000021"
   viewBox="0 0 28.000021 28.000021"
   fill="none"
   version="1.1"
   id="svg2071"
   sodipodi:docname="sec_ic_settings_lockscreen.svg"
   xmlns:inkscape="http://www.inkscape.org/namespaces/inkscape"
   xmlns:sodipodi="http://sodipodi.sourceforge.net/DTD/sodipodi-0.dtd"
   xmlns="http://www.w3.org/2000/svg"
   xmlns:svg="http://www.w3.org/2000/svg">
  <sodipodi:namedview
     id="namedview2073"
     pagecolor="#ffffff"
     bordercolor="#666666"
     borderopacity="1.0"
     inkscape:showpageshadow="2"
     inkscape:pageopacity="0.0"
     inkscape:pagecheckerboard="0"
     inkscape:deskcolor="#d1d1d1" />
  <g
     clip-path="url(#clip0_1_1375)"
     id="g2064">
    <path
       d="M 24.856,3.14401 C 23.13,1.52161 20.7739,0.601214 18.1738,0.256914 15.6907,-0.072186 14,0.00881404 14,0.00881404 c 0,0 -1.691,-0.08100004 -4.17421,0.24809996 -2.6,0.3443 -4.956,1.264696 -6.6815,2.887096 -1.6228,1.7258 -2.543099,4.0819 -2.887599,6.6819 -0.3291004,2.48299 -0.2478004,4.17399 -0.2478004,4.17399 0,0 -0.0813,1.6908 0.2478004,4.174 0.3445,2.5998 1.264799,4.9561 2.887399,6.6819 1.7257,1.6226 4.0817,2.5428 6.6817,2.8875 C 12.309,28.0722 14,27.9912 14,27.9912 c 0,0 1.6907,0.081 4.1738,-0.2479 2.6001,-0.3447 4.9562,-1.2649 6.6818,-2.8875 1.623,-1.7258 2.5432,-4.0821 2.8877,-6.6819 0.3289,-2.4832 0.2479,-4.174 0.2479,-4.174 0,0 0.081,-1.691 -0.2479,-4.17399 -0.3445,-2.6 -1.2647,-4.9561 -2.8873,-6.6819 z"
       fill="#35baaa"
       id="path2060" />
    <path
       d="M 18.3092,11.6313 18.2134,9.0437 c 0,-2.3958 -1.9167,-4.3125 -4.2167,-4.3125 -2.3,0 -4.2167,1.9167 -4.2167,4.3125 v 2.5876 H 9.6842 c -1.15,0 -2.1083,0.9583 -2.1083,2.1083 v 6.4208 c 0,1.15 0.9583,2.1083 2.1083,2.1083 h 8.625 c 1.15,0 2.1083,-0.9583 2.1083,-2.1083 v -6.4208 c 0.0959,-1.15 -0.8625,-2.1083 -2.1083,-2.1083 z m -5.4625,4.2166 c 0,-0.6708 0.575,-1.2458 1.2458,-1.2458 0.6709,0 1.2459,0.575 1.2459,1.2458 0,0.3834 -0.1917,0.7667 -0.4792,0.9583 v 2.0126 c 0,0.3833 -0.2875,0.7666 -0.7667,0.7666 -0.4791,0 -0.7666,-0.2875 -0.7666,-0.7666 v -2.0126 c -0.2875,-0.1916 -0.4792,-0.5749 -0.4792,-0.9583 z m -1.6292,-6.9 c 0,-1.6292 1.2459,-2.875 2.7792,-2.875 1.5333,0 2.7792,1.2458 2.7792,2.875 v 2.5875 h -5.5584 z"
       fill="#ffffff"
       id="path2062" />
  </g>
  <defs
     id="defs2069">
    <clipPath
       id="clip0_1_1375">
      <rect
         width="28"
         height="28"
         fill="#ffffff"
         id="rect2066"
         x="0"
         y="0" />
    </clipPath>
  </defs>
</svg>

<svg width="28" height="28" viewBox="0 0 28 28" fill="none" xmlns="http://www.w3.org/2000/svg">
<g clip-path="url(#clip0_1_1375)">
<path d="M24.856 3.14401C23.13 1.52161 20.7739 0.601214 18.1738 0.256914C15.6907 -0.072186 14 0.00881404 14 0.00881404C14 0.00881404 12.309 -0.072186 9.82579 0.256914C7.22579 0.601214 4.86979 1.52161 3.14429 3.14401C1.52149 4.86981 0.601191 7.22591 0.256691 9.82591C-0.0724094 12.3089 0.0088906 13.9999 0.0088906 13.9999C0.0088906 13.9999 -0.0724094 15.6907 0.256691 18.1739C0.601191 20.7737 1.52149 23.13 3.14409 24.8558C4.86979 26.4784 7.22579 27.3986 9.82579 27.7433C12.309 28.0722 14 27.9912 14 27.9912C14 27.9912 15.6907 28.0722 18.1738 27.7433C20.7739 27.3986 23.13 26.4784 24.8556 24.8558C26.4786 23.13 27.3988 20.7737 27.7433 18.1739C28.0722 15.6907 27.9912 13.9999 27.9912 13.9999C27.9912 13.9999 28.0722 12.3089 27.7433 9.82591C27.3988 7.22591 26.4786 4.86981 24.856 3.14401Z" fill="#35BAAA"/>
<path d="M18.3092 11.6313L18.2134 9.0437C18.2134 6.6479 16.2967 4.7312 13.9967 4.7312C11.6967 4.7312 9.78 6.6479 9.78 9.0437V11.6313H9.6842C8.5342 11.6313 7.5759 12.5896 7.5759 13.7396V20.1604C7.5759 21.3104 8.5342 22.2687 9.6842 22.2687H18.3092C19.4592 22.2687 20.4175 21.3104 20.4175 20.1604V13.7396C20.5134 12.5896 19.555 11.6313 18.3092 11.6313ZM12.8467 15.8479C12.8467 15.1771 13.4217 14.6021 14.0925 14.6021C14.7634 14.6021 15.3384 15.1771 15.3384 15.8479C15.3384 16.2313 15.1467 16.6146 14.8592 16.8062V18.8188C14.8592 19.2021 14.5717 19.5854 14.0925 19.5854C13.6134 19.5854 13.3259 19.2979 13.3259 18.8188V16.8062C13.0384 16.6146 12.8467 16.2313 12.8467 15.8479ZM11.2175 8.9479C11.2175 7.3187 12.4634 6.0729 13.9967 6.0729C15.53 6.0729 16.7759 7.3187 16.7759 8.9479V11.5354H11.2175V8.9479Z" fill="white"/>
</g>
<defs>
<clipPath id="clip0_1_1375">
<rect width="28" height="28" fill="white"/>
</clipPath>
</defs>
</svg>
